!!!ONB: MCCC : IAD0035_03 : Extracted Monophonic Melody
!!!COM: Dvořák, Antonín
!!!OPR: Legends
!!!OMV: 3
!!!SCT: Op.59 ; B.117 (piano duet), B.122 (orchestra)
!!!ODT: 1881///
**kern
*staff1
*clefG2
*k[b-e-]
*B-:
*M2/4
16bb-
8ddd
8ggg
=2
16eee-
16ccc
16eee-
16ccc
8r
8ggg
=3
16ddd
16bb-
16ddd
16bb-
8r
8ggg
=4
16ccc
16aa
16ccc
16aa
8r
8ggg
=5
4ddd
8ccc
8bb-
=6
4aaa
8ggg
8fff
=7
4ggg
8fff
8eee
=8
8fff
8ddd
4r
=9
8ff
8dd
4r
=10
8.gg
16bb-
8ddd
8ggg
=11
16eee-
16ccc
16eee-
16ccc
8gg
8ggg
=12
16ddd
16bb-
16ddd
16bb-
8gg
8ggg
=13
16ccc
16aa
16ccc
16aa
8gg
8ggg
=14
4ddd
8ccc
8bb-
=15
8aa
8aaa
8ggg
8fff
=16
4ggg
8fff
8eee
=17
8fff
8ddd
4r
=18
8ff
8dd
4r
=19
8bb-
8ccc
8ddd
8bb-
=20
2ccc
=21
4ddd
8fff
8eee-
=22
2ccc
=23
8bb-
8ccc
8ddd
8bb-
=24
2ccc
=25
4ddd
8fff#
8eee
=26
2ddd
=27
8eee
8fff#
8ggg
8eee
=28
8fff#
8fff#
8aaa
8fff#
=29
4eee
8eee
16fff#
16ggg
=30
4fff#
4ddd
=31
8eee
8fff#
8ggg
8eee
=32
8fff#
8fff#
8aaa
8fff#
=33
4eee
8eee
16fff#
16ggg
=34
4fff#
4ddd
=35
4eee
8eee
16fff#
16ggg
=36
4fff#
4ddd
=37
4fff#
4ddd
=38
4fff#
4ddd
=39
4fff#
4ddd
=40
4r
8r
8f#
=41
8.f#
16a
4ee-
=42
4r
8r
8f#
=43
8.f#
16a
4ee-
=44
4r
8r
8d
=45
8.d
16f#
8a
8ee-
=46
8.d
16f#
8a
8ee
=47
8.d
16a
8cc
8ff
=48
8.d
16a
8cc
8ff#
=49
8.gg
16bb-
8ddd
8ggg
=50
16eee-
16ccc
16eee-
16ccc
8gg
8ggg
=51
16ddd
16bb-
16ddd
16bb-
8gg
8ggg
=52
16ccc
16aa
16ccc
16aa
8gg
8ggg
=53
4ddd
8eee
8eee
=54
4ddd
8ggg
8aaa
=55
4ggg
8fff
8eee
=56
16fff
8ddd
16ddd
16fff
8ddd
16dd
=57
16ff
8.dd
4r
=58
2r
=59
2r
=60
2r
=61
4r
8r
8ddd
=62
8.ccc
16bb-
8aa
8ddd
=63
8ccc
8aa
4r
=64
2r
=65
4r
8r
8ddd
=66
8.ccc
16bb-
8aa
8ddd
=67
4ccc
8aa
8ddd
=68
4ccc
8aa
8ddd
=69
4ccc
8aa
8ddd
=70
8ccc
8aa
4aa
=71
4ff
4ee-
=72
4cc
4a
=73
4.f
8f
=74
*M4/4
8.f
16g
8.f
16g
8.f
16g
8.f
16g
=75
4f
8.g
16a
4b-
8.cc
16dd-
=76
4dd
2.b-[
=77
4b-]
2.f
=78
8.f
16g
8.f
16g
4f
4r
=79
8.ff
16gg
8.ff
16gg
8.ff
16gg
8.ff
16gg
=80
4ff
8.gg
16aa
4bb-
8.ccc
16ddd-
=81
4ddd
4bb-
2bb-[
=82
4bb-]
2.ff
=83
8.ff
16gg
8.ff
16gg
4ff
4r
=84
2r
2aa[
=85
4aa]
4r
2r
=86
2r
4aa
8ddd
8fff#
=87
1aaa
=88
8.a
16b
8.a
16b
2a
=89
8.a
16b-
8.a
16b-
2a
=90
8.a
16b
8.b
16cc
8.cc
16dd
8.dd
16ee
=91
8.ff
16gg
8.ff
16gg
8.ff
16gg
16ff
64r
32.ff#
32r
128r
64.gg
16r
=92
12ee
12ff
12dd
12ee-
12cc
12dd-
12b
12cc
12g
16b-
16a
16g
16f
=93
8.f
16g
8.f
16g
8.f
16g
8.f
16g
=94
4f
8.g
16a
4b-
8.cc
16dd-
=95
4dd
2.b-
=96
4b-
2.f[
=97
8.f]
16g
8.f
16g
4f
4r
=98
8.ff
16gg
8.ff
16gg
8.ff
16gg
8.ff
16gg
=99
4ff
8.gg
16aa
4bb-
8.ccc
16ddd-
=100
4ddd
4bb-
2bb-[
=101
4bb-]
2.ff
=102
2cc
4b-
4r
=103
1r
=104
1r
=105
*M2/4
2r
=106
8.gg
16bb-
8ddd
8ggg
=107
16eee-
16ccc
16eee-
16ccc
8gg
8ggg
=108
16ddd
16bb-
16ddd
16bb-
8gg
8ggg
=109
16ccc
16aa
16ccc
16aa
8gg
8ggg
=110
4ddd
8ccc
8bb-
=111
4aaa
8ggg
8fff
=112
4ggg
8fff
8eee
=113
8fff
8ddd
4r
=114
8fff
8ddd
4r
=115
8.gg
16bb-
8ddd
8ggg
=116
16eee-
16ccc
16eee-
16ccc
8gg
8ggg
=117
16ddd
16bb-
16ddd
16bb-
8gg
8ggg
=118
16ccc
16aa
16ccc
16aa
8gg
8ggg
=119
4ddd
8ccc
8bb-
=120
4aaa
8ggg
8fff
=121
4ggg
8fff
8eee
=122
8fff
8ddd
4r
=123
8ff
8dd
4r
=124
8bb-
8ccc
8ddd
8bb-
=125
2ccc
=126
4ddd
8fff
8eee-
=127
2ccc
=128
8bb-
8ccc
8ddd
8bb-
=129
2ccc
=130
4ddd
8fff#
8eee
=131
2ddd
=132
8eee
8fff#
8ggg
8eee
=133
8fff#
8fff#
8aaa
8fff#
=134
4eee
8eee
16fff#
16ggg
=135
4fff#
4ddd
=136
8eee
8fff#
8ggg
8eee
=137
8fff#
8fff#
8aaa
8fff#
=138
4eee
8eee
16fff#
16ggg
=139
4fff#
4ddd
=140
4fff#
4ddd
=141
4fff#
4ddd
=142
4fff#
4ddd
=143
4r
8r
8f#
=144
8.f#
16a
4ee-
=145
4r
8r
8f#
=146
8.f#
16a
4ee-
=147
4r
8r
8d
=148
8.d
16f#
8a
8ee-
=149
8.d
16f#
8a
8ee
=150
8.d
16a
8cc
8ff
=151
8.d
16a
8cc
8ff#
=152
8.gg
16bb-
8ddd
8ggg
=153
16eee-
16ccc
16eee-
16ccc
8gg
8ggg
=154
16ddd
16bb-
16ddd
16bb-
8gg
8ggg
=155
16ccc
16aa
16ccc
16aa
8gg
8ggg
=156
4ddd
8ccc
8bb-
=157
4ccc
8ddd
8eee-
=158
4ddd
8ccc
8bb-
=159
4aa
8bb-
8ccc
=160
4ddd
8ccc
8bb-
=161
4ccc
8bb-
8aa-
=162
4aa-
8ee-
8cc
=163
4cc
8b-
8a-
=164
4a-
8e-
8c
=165
4c
4r
=166
2r
=167
2r
=168
2r
=169
8.dd
16ff#
8aa
8ddd
=170
4ggg
4r
==
*-
